!!!XEN: Maple sugar
!!!AGN: Begging dance song
!!!COM: Anonymous
!!!CNT: Native American -- Ojibway
!!!TXO: Ojibway
!!!MLC: Lac du Flambeau reservation, northern Wisconsin, U.S.A.
!!!MRD: 1909-1912///
!!!MPN: Mec'kawiga'bau ("Stands firmly")
**kern
*MM116
*Imale
*k[f#]
*clefF4
*M2/4
=1
16d
8.d
4d
=2
8e
8d
4d
=3
8.d
16c
16d
8.A
=4
16d
8.d
4d
=5
8e
8d
4d
=6
8.d
16c
16d
8.A
=7
*M3/4
16d
8.G
8.G
16E
4D
=8
16G
8.G
4G
8A
8G
=9
*M2/4
16A
8.G
8.G
16E
=10
4D
8E
8E
=11
8.D
16D
[4D
=12
*M3/4
2.D]
=13
*M2/4
8.A
16A
8.A
16A
=14
8.A
16A
8.A
16A
=15
8.d
16A
4G
=16
*M3/4
16A
8.G
8.G
16E
4D
=17
16G
8.G
4G
8A
8G
=18
*M2/4
16A
8.G
8.G
16E
=19
4D
8E
8E
=20
8.D
16D
[4D
=21
2D]
==
*-
!!!OCL: Frances Densmore
!!!YOR: Chippewa [i.e., Ojibway] Music--II, Bulletin 53 of the Bureau of American Ethnology, Smitsonian Institution
!!!ONM: 116
!!!PPG: 231
!!!PUB: published
!!!PPR: Government Printing Office
!!!PPP: Washington, D.C.
!!!PDT: 1912///
!!!EST: missing clef changes, text, drum tempo, and drum part
!!!YEC: Copyright 1998 Paul von Hippel
!!!YEM: Rights to all derivate electronic formats reserved.
!!!EFL: 36/42
